modules/feathericon/icons/pinterest.svg

<?xml version="1.0" encoding="UTF-8"?>
<svg width="14px" height="14px" viewBox="0 0 14 14" version="1.1" xmlns="http://www.w3.org/2000/svg" xmlns:xlink="http://www.w3.org/1999/xlink">
    <!-- Generator: sketchtool 48.1 (47250) - http://www.bohemiancoding.com/sketch -->
    <title>pinterest</title>
    <desc>Created with sketchtool.</desc>
    <defs></defs>
    <g id="brand" stroke="none" stroke-width="1" fill="none" fill-rule="evenodd">
        <g id="pinterest" fill="#000000">
            <path d="M6.99978541,0 C3.13380951,0 0,3.13380951 0,6.99978541 C0,9.96535974 1.84500782,12.4979001 4.44879066,13.5180405 C4.38784832,12.9639803 4.33248521,12.1150792 4.47325343,11.5099476 C4.60028816,10.9640416 5.29382913,8.0306551 5.29382913,8.0306551 C5.29382913,8.0306551 5.08482266,7.61135465 5.08482266,6.99163116 C5.08482266,6.01784127 5.64875387,5.29168327 6.35130744,5.29168327 C6.94828485,5.29168327 7.23668802,5.73973821 7.23668802,6.27748996 C7.23668802,6.87790074 6.85472548,7.77572729 6.65730664,8.60831979 C6.49207566,9.30486496 7.00665216,9.87308789 7.69375556,9.87308789 C8.93792342,9.87308789 9.89411729,8.56111094 9.89411729,6.66760676 C9.89411729,4.99169247 8.68986236,3.81962539 6.97017259,3.81962539 C4.97881733,3.81962539 3.80932528,5.31357101 3.80932528,6.85772968 C3.80932528,7.4589988 4.04107783,8.10447258 4.33033935,8.45467644 C4.38784832,8.5242022 4.39600258,8.58514454 4.37926489,8.65552865 C4.32604764,8.87698109 4.20802551,9.35207382 4.18442108,9.4499249 C4.15394991,9.5773888 4.08313663,9.60485577 3.95052267,9.54305509 C3.07630054,9.13620061 2.52953619,7.8581282 2.52953619,6.83112106 C2.52953619,4.62303424 4.13377885,2.59562858 7.15471629,2.59562858 C9.58296803,2.59562858 11.4700346,4.32604764 11.4700346,6.6384231 C11.4700346,9.0507955 9.94905122,10.9919377 7.83752797,10.9919377 C7.12853683,10.9919377 6.46160449,10.6237087 6.23328531,10.1880997 C6.23328531,10.1880997 5.88222311,11.5249686 5.79724717,11.8524264 C5.6393121,12.460133 5.21271574,13.2227706 4.92731676,13.6875632 C5.5822323,13.8901321 6.2783483,13.9995708 6.99978541,13.9995708 C10.8657613,13.9995708 14,10.8653321 14,6.99978541 C14,3.13380951 10.8657613,0 6.99978541,0" id="Shape"></path>
        </g>
    </g>
</svg>

<svg width="14" height="14" xmlns="http://www.w3.org/2000/svg"><path d="M7 0a7 7 0 0 0-2.551 13.518c-.061-.554-.117-1.403.024-2.008.127-.546.82-3.48.82-3.48s-.208-.419-.208-1.038c0-.974.564-1.7 1.266-1.7.597 0 .886.448.886.985 0 .6-.382 1.499-.58 2.331-.165.697.35 1.265 1.037 1.265 1.244 0 2.2-1.312 2.2-3.205 0-1.676-1.204-2.848-2.924-2.848-1.991 0-3.16 1.494-3.16 3.038 0 .601.231 1.246.52 1.597a.21.21 0 0 1 .05.2l-.196.795c-.03.127-.1.155-.233.093-.875-.407-1.421-1.685-1.421-2.712 0-2.208 1.604-4.235 4.625-4.235 2.428 0 4.315 1.73 4.315 4.042 0 2.413-1.52 4.354-3.632 4.354-.71 0-1.376-.368-1.605-.804l-.436 1.664c-.158.608-.584 1.37-.87 1.836A7 7 0 1 0 7 0" fill="#000" fill-rule="evenodd"/></svg>
